!!!ONB: MCCC : ILB0171_03 : Extracted Monophonic Melody
!!!COM: Beethoven, Ludwig van
!!!OPR: Piano Sonata No.10
!!!OMV: 3
!!!SCT: Op.14 No.2
!!!ODT: 1798///
**kern
*thru
*staff1
*Ipiano
*clefG2
*k[f#]
*G:
*M3/8
*MM120
16B
16c
=1
8d
16e
16f#
8g
=2
16a
16b
8cc
8cc#
=3
4dd
16ee
16cc#
=4
8dd
8r
16b
16cc
=5
8dd
16ee
16ff#
8gg
=6
16aa
16bb
8ccc
8ccc#
=7
4ddd
16ccc
16aa
=8
8gg
8r
24d
24e
24f#
=9
24g
24a
24b
8cc
8r
=10
8r
8ccc
24d
24e
24f#
=11
24g
24a
24b
8cc
8r
=12
8r
8ccc
24d
24e
24f#
=13
24g
24a
24b
24cc
24dd
24ee
32ff#
32gg
32aa
32bb
=14
8ccc
8ccc
8ccc
=15
8ccc
8aa
8gg
=16
4ff#
16b
16cc
=17
8dd
16ee
16ff#
8gg
=18
16aa
16bb
8ccc
8ccc#
=19
4ddd
16eee
16ccc#
=20
8ddd
8r
16ccc
16aa
=21
8gg
8r
16aa
16ff#
=22
8gg
8r
8r
=23
4.b
=24
24b
24dd#
24ff#
24bb
24aa
24gg
24ff#
24ee
24dd#
=25
24ee
24b
24gg
24ee
24b
24gg
24ff#
24b
24aa
=26
8gg
8r
8r
=27
4.b
=28
24b
24dd#
24ff#
24bb
24aa
24gg
24ff#
24ee
24dd#
=29
24ee
24gg
24cc#
24dd
24ff#
24b
24cc#
24ee
24a#
=30
8b
8r
8r
=31
4.b
=32
24b
24dd#
24ff#
24bb
24aa
24gg
24ff#
24ee
24dd#
=33
24ee
24aa#
24bb
24ee
24aa#
24bb
24ff#
24aa#
24bb
=34
8gg
8r
8r
=35
4.ee
=36
24ee
24gg#
24bb
24eee
24ddd
24ccc
24bb
24aa
24gg#
=37
24aa
24ddd
24eee#
24aa
24eee#
24eee#
24bb
24ddd
24eee#
=38
8ccc
8r
8r
=39
8ccc
8r
8r
=40
8cc
8r
8r
=41
4.r
=42
8r
8r
16B
16c
=43
8d
12e
12f#
12g
=44
16a
16b
8cc
8cc#
=45
4dd
16ee
16cc#
=46
8dd
8r
16b
16cc
=47
8dd
16ee
16ff#
8gg
=48
16aa
16bb
8ccc
8ccc#
=49
4ddd
16ccc
16aa
=50
8gg
8r
24d
24e
24f#
=51
24g
24a
24b
8cc
8r
=52
8r
8ccc
24d
24e
24f#
=53
24g
24a
24b
8cc
8r
=54
8r
8ccc
24d
24e
24f#
=55
24g
24a
24b
24cc
24dd
24ee
32ff#
32gg
32aa
32bb
=56
8ccc
8ccc
8ccc
=57
8ccc
8aa
8gg
=58
4ff#
16b
16cc
=59
8dd
16ee
16ff#
8gg
=60
16aa
16bb
8ccc
8ccc#
=61
4ddd
16eee
16ccc#
=62
8ddd
8r
16ccc
16aa
=63
8gg
8r
16aa
16ff#
=64
8gg
8r
8r
=65
8r
8r
8g
=66
8gg
8r
8r
=67
8r
8r
8g
=68
8gg
8r
8r
=69
8r
24G
24A
24B
24c
24d
24e
=70
8f
8r
24g
24a
24b
=71
24cc
24dd
24ee
4ff
=72
4.dd#
=73
4.ee
=74
4ff
32gg
32ff
32ee
32ff
=75
8ff#
8gg
8gg
=76
4gg
8ee
=77
4.cc#
=78
8dd
16dd
16cc#
16dd
16ee
=79
8ff
8b
8b
=80
4cc
8r
=81
4.ee
=82
4ff
32gg
32ff
32ee
32ff
=83
8ff#
8gg
8gg
=84
4gg
8ee
=85
4.cc#
=86
8dd
16dd
16cc#
16dd
16ee
=87
8ff
8b
8b
=88
4cc
8G
=89
4f
[8e
=90
4e]
[8e
=91
4e]
[8e
=92
16e]
16c#
16d
16e
16f
16f#
=93
4g
8f
=94
4e
8e
=95
8a
8a
8a
=96
4d
8r
=97
16r
16G
16A
16B
16c
16F#
=98
16r
16G
16A
16B
16c
16F#
=99
16r
16G
16A
16B
16c
16F#
=100
16G
16B
16c
16d
16e
16f
=101
4g
8f
=102
4e
8e
=103
8a
8a
8a
=104
4d
8r
=105
8dd
8dd
8dd
=106
4dd
8r
=107
8aa
8aa
8aa
=108
16dd
16g
16a
16b
16cc
16dd
=109
4.ee
=110
4ff
32gg
32ff
32ee
32ff
=111
8ff#
8gg
8gg
=112
4gg
8ee
=113
4.cc#
=114
8dd
16dd
16cc#
16dd
16ee
=115
8ff
8b
8b
=116
8cc
16gg
16ff
16ee
16dd
=117
4.cc#
=118
8dd
16dd
16cc#
16dd
16ee
=119
8ff
8b
8b
=120
8cc
8r
8r
=121
4fff
8bb
=122
8ccc
8r
8r
=123
4ff
8b
=124
8cc
8r
16e
16f
=125
8g
16a
16b
8cc
=126
16dd
16ee
8ff
8ff#
=127
4gg
16aa
16ff#
=128
8gg
8r
16e
16f
=129
8g
16a
16b
8cc
=130
16dd
16ee
8ff
8ff#
=131
4gg
16ff
16dd
=132
8ee
8r
16dd
16b
=133
8cc
8r
16b
16g
=134
8a
8r
16g
16e
=135
8f#
8r
8r
=136
4.r
=137
4.r
=138
4r
16B
16c
=139
8d
16e
16f#
8g
=140
16a
16b
8cc
8cc#
=141
4dd
16ee
16cc#
=142
8dd
8r
16b
16cc
=143
8dd
16ee
16ff#
8gg
=144
16aa
16bb
8ccc
8ccc#
=145
4ddd
16ccc
16aa
=146
8gg
8r
24d
24e
24f#
=147
24g
24a
24b
8cc
8r
=148
8r
8ccc
24d
24e
24f#
=149
24g
24a
24b
8cc
8r
=150
8r
8ccc
24d
24e
24f#
=151
24g
24a
24b
24cc
24dd
24ee
32ff#
32gg
32aa
32bb
=152
8ccc
8ccc
8ccc
=153
8ccc
8aa
8gg
=154
4ff#
16b
16cc
=155
8dd
16ee
16ff#
8gg
=156
16aa
16bb
8ccc
8ccc#
=157
4ddd
16eee
16ccc#
=158
8ddd
8r
16ccc
16aa
=159
8gg
8r
16aa
16ff#
=160
8gg
8r
8r
=161
8r
8r
8dd
=162
8ddd
8r
8r
=163
8r
8r
8dd
=164
8ddd
8r
8r
=165
8r
24d
24e
24f#
24g
24a
24b
=166
8cc
8r
24dd
24ee
24ff#
=167
24gg
24aa
24bb
8ccc
8r
=168
4.r
=169
4.r
=170
24dd#
24ee
24ff#
24gg
24aa
24bb
8ccc
=171
4.r
=172
24ee
24ff#
24gg#
24aa
24bb-
24bb
8ccc
=173
4.r
=174
8r
8r
16a
16b-
=175
8cc
16dd
16ee
8ff
=176
16gg
16aa
8bb-
8bb
=177
4ccc
16ddd
16bb
=178
8ccc
8r
16a
16b-
=179
8cc
16dd
16ee
8ff
=180
16gg
16aa
8bb-
8bb
=181
4ccc
16ddd
16bb
=182
4ccc
16ddd
16bb
=183
4ccc
16ddd
16bb
=184
8ccc
8ccc
8ccc
=185
32ccc
16.bb
32aa
16.gg
32ff#
16.gg
=186
32aa
16.gg
32ff#
16.ee
32dd#
16.ee
=187
32gg
16.ff#
32ee
16.dd
32cc
16.b
=188
32dd
16.cc
32b
16.a
32g
16.f#
=189
8g
24G
24B
24d
24G
24B
24d
=190
24G
24B
24d
24G
24B
24d
24G
24B
24d
=191
24A
24c
24d
24A
24c
24d
24A
24c
24d
=192
24A
24c
24d
24A
24c
24d
24A
24c
24d
=193
24G
24B
24d
24G
24B
24d
24G
24B
24d
=194
24G
24B
24d
24G
24B
24d
24G
24B
24d
=195
24A
24c
24d
24A
24c
24d
24A
24c
24d
=196
24A
24c
24d
24A
24c
24d
24A
24c
24d
=197
24G
24B
24d
24G
24B
24d
24G
24B
24d
=198
24A
24c
24d
24A
24c
24d
24A
24c
24d
=199
24G
24B
24d
24G
24B
24d
24G
24B
24d
=200
24A
24c
24d
24A
24c
24d
24A
24c
24d
=201
16G
16B
16A
16c
16B
16d
=202
16c
16e
16d
16f#
16e
16g
=203
16f#
16a
16g
16b
16a
16cc
=204
16b
16cc#
16dd
16cc
16b
16g
=205
16ee
16dd
16cc
16a
16ff#
16ee
=206
16dd
16b
16gg
16ff
16ee
16cc
=207
16gg
16ff
16ee
16cc
16gg
16ff
=208
16ee
16cc
16gg
16ff
16ee
16cc
=209
8r
24gg
24ff#
24ee
24gg
24ff#
24ee
=210
8r
24gg
24ff#
24ee
24gg
24ff#
24ee
=211
8r
24dd
24cc
24b
24dd
24cc
24b
=212
8r
24a
24g
24f#
24a
24g
24f#
=213
4g
8r
=214
4.GG
=215
8FF#
8D
8D
=216
4.f#
=217
8g
8dd
8dd
=218
4.GG
=219
8FF#
8E
8D
=220
4.f#
=221
8g
8ee
8dd
=222
8FF#
8E
8D
=223
8g
8ee
8dd
=224
8FF#
8E
8D
=225
16GG
16BB
16AA
16C
16BB
16D
=226
16C
16E
16D
16F#
16E
16G
=227
16F#
16A
16G
16B
16A
16c
=228
16B
16c#
16d
16c
16B
16G
=229
16e
16d
16c
16A
16f#
16e
=230
16d
16B
16g
16f
16e
16c
=231
16g
16f
16e
16c
16g
16f
=232
16e
16c
16g
16f
16e
16c
=233
8r
24gg
24ff#
24ee
24gg
24ff#
24ee
=234
8r
24gg
24ff#
24ee
24gg
24ff#
24ee
=235
8r
24dd
24cc
24b
24dd
24cc
24b
=236
8r
24a
24g
24f#
24a
24g
24f#
=237
8g
8r
16b
16cc
=238
8dd
16ee
16ff#
8gg
=239
16aa
16bb
8ccc
8ccc#
=240
4ddd
16eee
16ccc#
=241
8ddd
8r
16b
16cc
=242
8dd
16ee
16ff#
8gg
=243
16aa
16bb
8ccc
8ccc#
=244
4ddd
16ccc
16aa
=245
8gg
8r
8cc#
=246
4dd
16ee
16cc#
=247
8dd
8r
8ccc#
=248
4ddd
16ccc
16aa
=249
8gg
8r
16cc
16a
=250
8g
8r
16ccc
16aa
=251
8gg
8r
16cc
16a
=252
8g
8r
8r
=253
4.r
=254
4r
8r
==
*-
